src/images/svg/seaweed.svg

<svg xmlns="http://www.w3.org/2000/svg" xmlns:xlink="http://www.w3.org/1999/xlink"
    xmlns:krita="http://krita.org/namespaces/svg/krita"
    xmlns:sodipodi="http://sodipodi.sourceforge.net/DTD/sodipodi-0.dtd" width="534.72pt" height="555.36pt"
    viewBox="190 210 534.72 555.36">
    <defs />
    <path id="shape0"
        transform="matrix(-0.899300219814217 0.437071100665358 0.436438585530859 0.897998781676063 493.46983807636 226.970801882486)"
        fill="#529c4e" fill-rule="evenodd" stroke="#529c4e" stroke-width="3.23" stroke-linecap="square"
        stroke-linejoin="bevel"
        d="M269.744 479.789C271.24 478.729 269.964 472.057 270.09 471.201C273.447 448.5 284.298 387.773 283.944 367.366C283.742 355.722 260.355 345.985 260.046 329.714C259.868 320.303 266.348 310.922 264.895 302.076C261.754 282.957 232.213 284.996 231.053 261.97C230.686 254.697 241.098 235.803 237.93 223.425C234.49 209.985 214.205 209.294 206.314 198.621C194.603 182.782 201.023 165.436 192.46 149.994C184.916 136.389 167.529 132.625 159.607 119.769C150.923 105.674 149.767 86.166 136.204 74.9559C126.487 66.9242 109.867 65.0694 101.422 56.9102C87.6342 43.5906 81.2919 19.653 63.324 7.50226C46.7394 -3.71306 14.1119 0.985081 13.2158 0.931268L0 4.1981C0.189457 5.23792 5.86175 12.7014 8.40402 14.7071C26.9706 29.3554 18.8702 50.8457 19.388 74.309C19.977 100.995 52.6373 94.0139 60.4543 112.809C66.9578 128.447 31.1746 141.204 55.7539 170.292C62.1468 177.858 71.126 182.361 77.1282 190.479C83.5394 199.15 71.312 237.523 80.6906 256.55C87.7265 270.824 106.068 273.341 112.109 288.47C120.539 309.585 113.173 334.97 125.369 355.589C136.882 375.054 158.249 363.786 173.015 374.437C176.408 376.884 182.803 408.591 189.887 418.492C199.038 431.281 222.686 433.702 235.357 443.14C248.912 453.237 257.869 470.866 269.744 479.789"
        sodipodi:nodetypes="ccccccccccccccccccccccccccc" />
    <path id="shape1"
        transform="matrix(-0.899300219814217 0.437071100665358 0.436438585530859 0.897998781676063 461.836724052467 334.439862190971)"
        fill="none" stroke="#64b659" stroke-width="14.4" stroke-linecap="round" stroke-linejoin="bevel"
        d="M0 0C18.24 12.48 31.2 29.28 38.88 50.4C50.4 82.08 50.4 117.36 64.8 143.28C79.2 169.2 108.72 203.04 117.36 221.76C126 240.48 154.08 281.52 156.24 311.76"
        sodipodi:nodetypes="czzzc" />
    <path id="shape0" transform="matrix(0.999885995285278 0 0 0.998438992672136 193.663814045423 293.9352457235)"
        fill="#79d16d" fill-rule="evenodd" stroke="#79d16d" stroke-width="3.23" stroke-linecap="square"
        stroke-linejoin="bevel"
        d="M269.744 479.789C271.24 478.729 269.964 472.057 270.09 471.201C273.447 448.5 284.298 387.773 283.944 367.366C283.742 355.722 260.355 345.985 260.046 329.714C259.868 320.303 266.348 310.922 264.895 302.076C261.754 282.957 232.213 284.996 231.053 261.97C230.686 254.697 241.098 235.803 237.93 223.425C234.49 209.985 214.205 209.294 206.314 198.621C194.603 182.782 201.023 165.436 192.46 149.994C184.916 136.389 167.529 132.625 159.607 119.769C150.923 105.674 149.767 86.166 136.204 74.9559C126.487 66.9242 109.867 65.0694 101.422 56.9102C87.6342 43.5906 81.2919 19.653 63.324 7.50226C46.7394 -3.71306 14.1119 0.985082 13.2158 0.931269L0 4.1981C0.189457 5.23792 5.86175 12.7014 8.40402 14.7071C26.9706 29.3554 18.8702 50.8457 19.388 74.309C19.977 100.995 52.6373 94.0139 60.4543 112.809C66.9578 128.447 31.1746 141.204 55.7539 170.292C62.1468 177.858 71.126 182.361 77.1282 190.479C83.5394 199.15 71.312 237.523 80.6906 256.55C87.7265 270.824 106.068 273.341 112.109 288.47C120.539 309.585 113.173 334.97 125.369 355.589C136.882 375.054 158.249 363.786 173.015 374.437C176.408 376.884 182.803 408.591 189.887 418.492C199.038 431.281 222.686 433.702 235.357 443.14C248.912 453.237 257.869 470.866 269.744 479.789"
        sodipodi:nodetypes="ccccccccccccccccccccccccccc" />
    <path id="shape1" transform="matrix(0.999885995285278 0 0 0.998438992672136 269.511333972499 377.62914407663)"
        fill="none" stroke="#64b659" stroke-width="14.4" stroke-linecap="round" stroke-linejoin="bevel"
        d="M0 0C18.24 12.48 31.2 29.28 38.88 50.4C50.4 82.08 50.4 117.36 64.8 143.28C79.2 169.2 108.72 203.04 117.36 221.76C126 240.48 154.08 281.52 156.24 311.76"
        sodipodi:nodetypes="czzzc" />
    <path id="shape01"
        transform="matrix(0.560870687497537 0.812414462943105 -0.805187761927116 0.492204811937767 686.480939734206 313.121801907054)"
        fill="#64b659" fill-rule="evenodd" stroke="#64b659" stroke-width="3.23" stroke-linecap="square"
        stroke-linejoin="bevel"
        d="M269.744 479.789C271.24 478.729 269.964 472.057 270.09 471.201C273.447 448.5 284.298 387.773 283.944 367.366C283.742 355.722 260.355 345.985 260.046 329.714C259.868 320.303 266.348 310.922 264.895 302.076C261.754 282.957 232.213 284.996 231.053 261.97C230.686 254.697 241.098 235.803 237.93 223.425C234.49 209.985 214.205 209.294 206.314 198.621C194.603 182.782 201.023 165.436 192.46 149.994C184.916 136.389 167.529 132.625 159.607 119.769C150.923 105.674 149.767 86.166 136.204 74.9559C126.487 66.9242 109.867 65.0694 101.422 56.9102C87.6342 43.5906 81.2919 19.653 63.324 7.50226C46.7394 -3.71306 14.1119 0.985081 13.2158 0.931268L0 4.1981C0.189457 5.23792 5.86175 12.7014 8.40402 14.7071C26.9706 29.3554 18.8702 50.8457 19.388 74.309C19.977 100.995 52.6373 94.0139 60.4543 112.809C66.9578 128.447 31.1746 141.204 55.7539 170.292C62.1468 177.858 71.126 182.361 77.1282 190.479C83.5394 199.15 71.312 237.523 80.6906 256.55C87.7265 270.824 106.068 273.341 112.109 288.47C120.539 309.585 113.173 334.97 125.369 355.589C136.882 375.054 158.249 363.786 173.015 374.437C176.408 376.884 182.803 408.591 189.887 418.492C199.038 431.281 222.686 433.702 235.357 443.14C248.912 453.237 257.869 470.866 269.744 479.789"
        sodipodi:nodetypes="ccccccccccccccccccccccccccc" />
    <path id="shape11"
        transform="matrix(0.560870687497537 0.812414462943105 -0.805187761927116 0.492204811937767 661.992698885488 415.240789473664)"
        fill="none" stroke="#529c4e" stroke-width="14.4" stroke-linecap="round" stroke-linejoin="bevel"
        d="M0 0C18.24 12.48 31.2 29.28 38.88 50.4C50.4 82.08 50.4 117.36 64.8 143.28C79.2 169.2 108.72 203.04 117.36 221.76C126 240.48 154.08 281.52 156.24 311.76"
        sodipodi:nodetypes="czzzc" />
</svg>

<svg xmlns="http://www.w3.org/2000/svg" width="712.96" height="740.48" viewBox="190 210 534.72 555.36"><path transform="matrix(-.8993 .43707 .43644 .898 493.47 226.97)" fill="#529c4e" fill-rule="evenodd" stroke="#529c4e" stroke-width="3.23" stroke-linecap="square" stroke-linejoin="bevel" d="M269.744 479.789c1.496-1.06.22-7.732.346-8.588 3.357-22.701 14.208-83.428 13.854-103.835-.202-11.644-23.589-21.381-23.898-37.652-.178-9.411 6.302-18.792 4.849-27.638-3.141-19.119-32.682-17.08-33.842-40.106-.367-7.273 10.045-26.167 6.877-38.545-3.44-13.44-23.725-14.131-31.616-24.804-11.711-15.839-5.291-33.185-13.854-48.627-7.544-13.605-24.931-17.369-32.853-30.225-8.684-14.095-9.84-33.603-23.403-44.813-9.717-8.032-26.337-9.887-34.782-18.046-13.788-13.32-20.13-37.257-38.098-49.408C46.739-3.713 14.112.985 13.216.932L0 4.197c.19 1.04 5.862 8.503 8.404 10.51C26.971 29.354 18.87 50.845 19.388 74.308c.589 26.686 33.25 19.705 41.066 38.5 6.504 15.638-29.28 28.395-4.7 57.483 6.393 7.566 15.372 12.069 21.374 20.187 6.411 8.671-5.816 47.044 3.563 66.071 7.035 14.274 25.377 16.791 31.418 31.92 8.43 21.115 1.064 46.5 13.26 67.119 11.513 19.465 32.88 8.197 47.646 18.848 3.393 2.447 9.788 34.154 16.872 44.055 9.151 12.789 32.799 15.21 45.47 24.648 13.555 10.097 22.512 27.726 34.387 36.649"/><path transform="matrix(-.8993 .43707 .43644 .898 461.837 334.44)" fill="none" stroke="#64b659" stroke-width="14.4" stroke-linecap="round" stroke-linejoin="bevel" d="M0 0c18.24 12.48 31.2 29.28 38.88 50.4C50.4 82.08 50.4 117.36 64.8 143.28c14.4 25.92 43.92 59.76 52.56 78.48 8.64 18.72 36.72 59.76 38.88 90"/><path transform="matrix(.99989 0 0 .99844 193.664 293.935)" fill="#79d16d" fill-rule="evenodd" stroke="#79d16d" stroke-width="3.23" stroke-linecap="square" stroke-linejoin="bevel" d="M269.744 479.789c1.496-1.06.22-7.732.346-8.588 3.357-22.701 14.208-83.428 13.854-103.835-.202-11.644-23.589-21.381-23.898-37.652-.178-9.411 6.302-18.792 4.849-27.638-3.141-19.119-32.682-17.08-33.842-40.106-.367-7.273 10.045-26.167 6.877-38.545-3.44-13.44-23.725-14.131-31.616-24.804-11.711-15.839-5.291-33.185-13.854-48.627-7.544-13.605-24.931-17.369-32.853-30.225-8.684-14.095-9.84-33.603-23.403-44.813-9.717-8.032-26.337-9.887-34.782-18.046-13.788-13.32-20.13-37.257-38.098-49.408C46.739-3.713 14.112.985 13.216.932L0 4.197c.19 1.04 5.862 8.503 8.404 10.51C26.971 29.354 18.87 50.845 19.388 74.308c.589 26.686 33.25 19.705 41.066 38.5 6.504 15.638-29.28 28.395-4.7 57.483 6.393 7.566 15.372 12.069 21.374 20.187 6.411 8.671-5.816 47.044 3.563 66.071 7.035 14.274 25.377 16.791 31.418 31.92 8.43 21.115 1.064 46.5 13.26 67.119 11.513 19.465 32.88 8.197 47.646 18.848 3.393 2.447 9.788 34.154 16.872 44.055 9.151 12.789 32.799 15.21 45.47 24.648 13.555 10.097 22.512 27.726 34.387 36.649"/><path transform="matrix(.99989 0 0 .99844 269.511 377.63)" fill="none" stroke="#64b659" stroke-width="14.4" stroke-linecap="round" stroke-linejoin="bevel" d="M0 0c18.24 12.48 31.2 29.28 38.88 50.4C50.4 82.08 50.4 117.36 64.8 143.28c14.4 25.92 43.92 59.76 52.56 78.48 8.64 18.72 36.72 59.76 38.88 90"/><path transform="matrix(.56087 .81241 -.80519 .4922 686.48 313.122)" fill="#64b659" fill-rule="evenodd" stroke="#64b659" stroke-width="3.23" stroke-linecap="square" stroke-linejoin="bevel" d="M269.744 479.789c1.496-1.06.22-7.732.346-8.588 3.357-22.701 14.208-83.428 13.854-103.835-.202-11.644-23.589-21.381-23.898-37.652-.178-9.411 6.302-18.792 4.849-27.638-3.141-19.119-32.682-17.08-33.842-40.106-.367-7.273 10.045-26.167 6.877-38.545-3.44-13.44-23.725-14.131-31.616-24.804-11.711-15.839-5.291-33.185-13.854-48.627-7.544-13.605-24.931-17.369-32.853-30.225-8.684-14.095-9.84-33.603-23.403-44.813-9.717-8.032-26.337-9.887-34.782-18.046-13.788-13.32-20.13-37.257-38.098-49.408C46.739-3.713 14.112.985 13.216.932L0 4.197c.19 1.04 5.862 8.503 8.404 10.51C26.971 29.354 18.87 50.845 19.388 74.308c.589 26.686 33.25 19.705 41.066 38.5 6.504 15.638-29.28 28.395-4.7 57.483 6.393 7.566 15.372 12.069 21.374 20.187 6.411 8.671-5.816 47.044 3.563 66.071 7.035 14.274 25.377 16.791 31.418 31.92 8.43 21.115 1.064 46.5 13.26 67.119 11.513 19.465 32.88 8.197 47.646 18.848 3.393 2.447 9.788 34.154 16.872 44.055 9.151 12.789 32.799 15.21 45.47 24.648 13.555 10.097 22.512 27.726 34.387 36.649"/><path transform="matrix(.56087 .81241 -.80519 .4922 661.993 415.24)" fill="none" stroke="#529c4e" stroke-width="14.4" stroke-linecap="round" stroke-linejoin="bevel" d="M0 0c18.24 12.48 31.2 29.28 38.88 50.4C50.4 82.08 50.4 117.36 64.8 143.28c14.4 25.92 43.92 59.76 52.56 78.48 8.64 18.72 36.72 59.76 38.88 90"/></svg>
